svgs/duotone/window-restore.svg

<svg xmlns="http://www.w3.org/2000/svg" viewBox="0 0 512 512"><!--! Font Awesome Pro 6.6.0 by @fontawesome - https://fontawesome.com License - https://fontawesome.com/license (Commercial License) Copyright 2024 Fonticons, Inc. --><defs><style>.fa-secondary{opacity:.4}</style></defs><path class="fa-secondary" d="M128 80l0 16 64 0 0-16c0-8.8 7.2-16 16-16l224 0c8.8 0 16 7.2 16 16l0 224c0 8.8-7.2 16-16 16l-16 0 0 64 16 0c44.2 0 80-35.8 80-80l0-224c0-44.2-35.8-80-80-80L208 0c-44.2 0-80 35.8-80 80z"/><path class="fa-primary" d="M64 128c-35.3 0-64 28.7-64 64L0 448c0 35.3 28.7 64 64 64l256 0c35.3 0 64-28.7 64-64l0-256c0-35.3-28.7-64-64-64L64 128zm32 64l192 0c17.7 0 32 14.3 32 32s-14.3 32-32 32L96 256c-17.7 0-32-14.3-32-32s14.3-32 32-32z"/></svg>

<svg xmlns="http://www.w3.org/2000/svg" viewBox="0 0 512 512"><!--! Font Awesome Pro 6.4.0 by @fontawesome - https://fontawesome.com License - https://fontawesome.com/license (Commercial License) Copyright 2023 Fonticons, Inc. --><defs><style>.fa-secondary{opacity:.4}</style></defs><path class="fa-primary" d="M64 128c-35.3 0-64 28.7-64 64V448c0 35.3 28.7 64 64 64H320c35.3 0 64-28.7 64-64V192c0-35.3-28.7-64-64-64H64zm32 64H288c17.7 0 32 14.3 32 32s-14.3 32-32 32H96c-17.7 0-32-14.3-32-32s14.3-32 32-32z"/><path class="fa-secondary" d="M208 64H432c8.8 0 16 7.2 16 16V304c0 8.8-7.2 16-16 16H416v64h16c44.2 0 80-35.8 80-80V80c0-44.2-35.8-80-80-80H208c-44.2 0-80 35.8-80 80V96h64V80c0-8.8 7.2-16 16-16z"/></svg>
